24x24/actions/flashlight-off.svg

<svg height="24" viewBox="0 0 6.35 6.35" width="24" xmlns="http://www.w3.org/2000/svg"><path d="m11 8v.988l1.012 1.012h1.988v1.988l1.867 1.867c.279.085.566.144.863.145h3.27v-6h-3.27a3 3 0 0 0 -2.23 1h-1.5v-1zm-9 1v4h8.982l-1-1h-6.982v-2h4.982l-1-1zm14.73 0h2.27v4h-2.27a2 2 0 0 1 -1.73-1v-2h.002a2 2 0 0 1 1.729-1z" fill="#8b9cbe" transform="matrix(.26458 0 0 .26458 .265 .265)"/><path d="m.794 292.16.187-.187 4.046 4.046-.187.187z" fill="#da4453" transform="translate(.265 -290.915)"/></svg>

<svg height="24" viewBox="0 0 6.35 6.35" width="24" xmlns="http://www.w3.org/2000/svg"><path d="M11 8v.988L12.012 10H14v1.988l1.867 1.867c.279.085.566.144.863.145H20V8h-3.27a3 3 0 0 0-2.23 1H13V8zM2 9v4h8.982l-1-1H3v-2h4.982l-1-1zm14.73 0H19v4h-2.27A2 2 0 0 1 15 12v-2h.002a2 2 0 0 1 1.729-1z" style="fill:currentColor;fill-opacity:1;stroke:none;color:#8b9cbe" transform="matrix(.26458 0 0 .26458 .265 .265)"/><path d="m.794 292.16.187-.187 4.046 4.046-.187.187z" style="fill:currentColor;fill-opacity:1;stroke:none;color:#da4453" transform="translate(.265 -290.915)"/></svg>
